assets/prescription.svg

<?xml version="1.0" encoding="UTF-8"?>
<svg width="32px" height="42px" viewBox="0 0 32 42" version="1.1" xmlns="http://www.w3.org/2000/svg" xmlns:xlink="http://www.w3.org/1999/xlink">
    <!-- Generator: Sketch 51.2 (57519) - http://www.bohemiancoding.com/sketch -->
    <title>prescription</title>
    <desc>Created with Sketch.</desc>
    <defs></defs>
    <g id="Page-1" stroke="none" stroke-width="1" fill="none" fill-rule="evenodd">
        <g id="Tickets-Copy" transform="translate(-257.000000, -151.000000)" fill="#BDC1C9" stroke="#BDC1C9">
            <g id="menu" transform="translate(21.000000, 130.000000)">
                <g id="prescription" transform="translate(175.000000, 0.000000)">
                    <g transform="translate(62.000000, 22.000000)">
                        <path d="M26.9731537,38.3333594 L3.37167385,38.3333594 C2.44228448,38.3333594 1.68579741,37.5854688 1.68579741,36.6666406 L1.68579741,3.33335937 C1.68579741,2.41453125 2.44228448,1.66664062 3.37167385,1.66664062 L20.2298851,1.66664062 L20.2298851,6.66664062 C20.2298851,8.50507813 21.7419899,10 23.6015589,10 L28.6590302,10 L28.6590302,36.6666406 C28.6590302,37.5854688 27.9025431,38.3333594 26.9731537,38.3333594 Z M21.9156825,2.84507812 L27.4670474,8.33335937 L23.6015589,8.33335937 C22.6721695,8.33335937 21.9156825,7.58546875 21.9156825,6.66664062 L21.9156825,2.84507812 Z M30.0978807,8.5775 L21.6687356,0.244140625 C21.5106897,0.087890625 21.2966954,0 21.0728233,0 L3.37167385,0 C1.51210489,0 0,1.49492187 0,3.33335937 L0,36.6666406 C0,38.5050781 1.51210489,40 3.37167385,40 L26.9731537,40 C28.8327227,40 30.3448276,38.5050781 30.3448276,36.6666406 L30.3448276,9.16664062 C30.3448276,8.9453125 30.2559267,8.73375 30.0978807,8.5775 Z" id="Fill-1"></path>
                        <path d="M9.99996852,15.4022737 L12.5861686,15.4022737 C14.0122963,15.4022737 15.1723687,16.4850108 15.1723687,17.8160668 C15.1723687,19.1471228 14.0122963,20.2298599 12.5861686,20.2298599 L9.99996852,20.2298599 L9.99996852,15.4022737 Z M21.7456003,23.6242565 C21.3735108,23.3476509 20.8321868,23.4042241 20.533319,23.75 L17.9922966,26.7145905 L14.0628889,21.5802263 C15.7110257,21.0146444 16.8964752,19.5480388 16.8964752,17.8160668 C16.8964752,15.5979418 14.9627249,13.7931034 12.5861686,13.7931034 L9.13787489,13.7931034 C8.66144834,13.7931034 8.27586207,14.1529849 8.27586207,14.5976509 L8.27586207,25.862069 C8.27586207,26.3068103 8.66144834,26.6666164 9.13787489,26.6666164 C9.61438225,26.6666164 9.99996852,26.3068103 9.99996852,25.862069 L9.99996852,21.8390302 L12.1427969,21.8390302 L16.8732802,28.0200754 L13.6368124,31.7959267 C13.3396418,32.1432866 13.4002559,32.649278 13.7715373,32.9273922 C13.9305886,33.0460453 14.1209167,33.1034483 14.3094669,33.1034483 C14.5628337,33.1034483 14.8128869,32.9997306 14.9838185,32.8017241 L17.9152763,29.381681 L20.5055982,32.766347 C20.6739437,32.9863793 20.9383018,33.1034483 21.2076707,33.1034483 C21.3811077,33.1034483 21.556242,33.0547198 21.7077771,32.9533405 C22.0949798,32.6955927 22.1850927,32.1927694 21.9081268,31.8313039 L19.0342928,28.0761961 L21.8803252,24.755722 C22.1774957,24.4084375 22.1168817,23.9024461 21.7456003,23.6242565 Z" id="Fill-2"></path>
                    </g>
                </g>
            </g>
        </g>
    </g>
</svg>

<?xml version="1.0" encoding="UTF-8"?>
<svg version="1.1" viewBox="0 0 32 42" xmlns="http://www.w3.org/2000/svg">
<title>prescription</title>
<desc>Created with Sketch.</desc>
<g fill="none" fill-rule="evenodd">
<g transform="translate(-257 -151)" fill="#BDC1C9" stroke="#BDC1C9">
<g transform="translate(21 130)">
<g transform="translate(175)">
<g transform="translate(62 22)">
<path d="m26.973 38.333h-23.601c-0.92939 0-1.6859-0.74789-1.6859-1.6667v-33.333c0-0.91883 0.75649-1.6667 1.6859-1.6667h16.858v5c0 1.8384 1.5121 3.3334 3.3717 3.3334h5.0575v26.667c0 0.91883-0.75649 1.6667-1.6859 1.6667zm-5.0575-35.488l5.5514 5.4883h-3.8655c-0.92939 0-1.6859-0.74789-1.6859-1.6667v-3.8216zm8.1822 5.7324l-8.4291-8.3334c-0.15805-0.15625-0.37204-0.24414-0.59591-0.24414h-17.701c-1.8596 0-3.3717 1.4949-3.3717 3.3334v33.333c0 1.8384 1.5121 3.3334 3.3717 3.3334h23.601c1.8596 0 3.3717-1.4949 3.3717-3.3334v-27.5c0-0.22133-0.088901-0.43289-0.24695-0.58914z"/>
<path d="m10 15.402h2.5862c1.4261 0 2.5862 1.0827 2.5862 2.4138s-1.1601 2.4138-2.5862 2.4138h-2.5862v-4.8276zm11.746 8.222c-0.37209-0.27661-0.91341-0.22003-1.2123 0.12574l-2.541 2.9646-3.9294-5.1344c1.6481-0.56558 2.8336-2.0322 2.8336-3.7642 0-2.2181-1.9338-4.023-4.3103-4.023h-3.4483c-0.47643 0-0.86201 0.35988-0.86201 0.80455v11.264c0 0.44474 0.38559 0.80455 0.86201 0.80455 0.47651 0 0.86209-0.35981 0.86209-0.80455v-4.023h2.1428l4.7305 6.181-3.2365 3.7759c-0.29717 0.34736-0.23656 0.85335 0.13472 1.1315 0.15905 0.11865 0.34938 0.17606 0.53793 0.17606 0.25337 0 0.50342-0.10372 0.67435-0.30172l2.9315-3.42 2.5903 3.3847c0.16835 0.22003 0.4327 0.3371 0.70207 0.3371 0.17344 0 0.34857-0.048728 0.50011-0.15011 0.3872-0.25775 0.47732-0.76057 0.20035-1.122l-2.8738-3.7551 2.846-3.3205c0.29717-0.34728 0.23656-0.85328-0.13472-1.1315z"/>
</g>
</g>
</g>
</g>
</g>
</svg>
